X: 38002
T: Speed The Plough
R: reel
M: 4/4
K: Dmajor
d3 A BA FB|AFFF EFDE|FAAF GABG|ABde ffef|
d3 B A3 D|FG AF (3FED B,D|FGAF GABG|1 ABde fddc:|2 ABde fdde|
|:faaa afdf|fgfg edBd|faaa afdB|ABde fdde|
fa aa afd2|g2 f2 e2 (3dBA|F2 AF GA BG|1 ABde fdde:|2 AB de fdd2||

